X: 1
T: Bonny Green Garters
O: Morris Dance
R: jig
B: Morris Ring
B: Barnes v.2 p.13
Z: 2014 John Chambers <jc:trillian.mit.edu>
M: 6/8
L: 1/8
K: G
"A"|:"G"d>cB "D7"AGF | "G"G>AB "C"cde |\
"G"d>ed dcB |1 "G"B3 "D7"A3 :|2 "D7"A3 "G"G2z ||
"B"||\
"G"d>cB "D7"AGF | "G"G2z "D7"A3 |\
"G"d>cB "D7"AGF | "G"G2z "D7"A3 |\
"G"d>cB "D7"AGF | "G"G>AB "C"cde |\
"G"d>ed dcB | "D7"A3 "G"G3 |]
%%text Play A2 as an intro.

%%sep 1 1 500
%%sep 1 1 500
